ui-icons/icons/speed-24.svg

<?xml version="1.0" encoding="UTF-8"?>
<svg width="24px" height="24px" viewBox="0 0 24 24" version="1.1" xmlns="http://www.w3.org/2000/svg" xmlns:xlink="http://www.w3.org/1999/xlink">
    <title>icon/24/speed-24</title>
    <g id="icon/24/speed-24" stroke="none" stroke-width="1" fill="none" fill-rule="evenodd">
        <path d="M12,2 C18.1364972,2 23.1111111,6.97461389 23.1111111,13.1111111 C23.1111111,18.7777778 22,21 12,21 C2,21 0.888888889,18.7777778 0.888888889,13.1111111 C0.888888889,6.97461389 5.86350278,2 12,2 Z M12,3.5 C6.6919299,3.5 2.38888889,7.80304102 2.38888889,13.1111111 C2.38888889,18.5313468 3.55978842,19.5 12,19.5 C20.4402116,19.5 21.6111111,18.5313468 21.6111111,13.1111111 C21.6111111,7.80304102 17.3080701,3.5 12,3.5 Z M6.40110886,9.27371418 L11.2151585,13.1738745 C11.9530555,12.8197001 12.8378807,13.0243037 13.3453898,13.6664609 C13.8528989,14.3086182 13.8475097,15.2167752 13.3324151,15.852864 C12.8173205,16.4889529 11.9301294,16.6830408 11.1964877,16.320134 C10.4628461,15.9572271 10.0787481,15.134277 10.2717655,14.3388678 L5.4567213,10.4388121 C5.13526225,10.1781683 5.08567761,9.70640204 5.34592113,9.38461888 C5.47110359,9.22993009 5.65262994,9.13133166 5.85053547,9.11053095 C6.048441,9.08973024 6.24650034,9.14843261 6.40110886,9.27371418 Z M4.75,11.5 C5.16421356,11.5 5.5,11.8357864 5.5,12.25 C5.5,12.6642136 5.16421356,13 4.75,13 C4.33578644,13 4,12.6642136 4,12.25 C4,11.8357864 4.33578644,11.5 4.75,11.5 Z M19.25,11.5 C19.6642136,11.5 20,11.8357864 20,12.25 C20,12.6642136 19.6642136,13 19.25,13 C18.8357864,13 18.5,12.6642136 18.5,12.25 C18.5,11.8357864 18.8357864,11.5 19.25,11.5 Z M17,7 C17.4142136,7 17.75,7.33578644 17.75,7.75 C17.75,8.16421356 17.4142136,8.5 17,8.5 C16.5857864,8.5 16.25,8.16421356 16.25,7.75 C16.25,7.33578644 16.5857864,7 17,7 Z M7,7 C7.41421356,7 7.75,7.33578644 7.75,7.75 C7.75,8.16421356 7.41421356,8.5 7,8.5 C6.58578644,8.5 6.25,8.16421356 6.25,7.75 C6.25,7.33578644 6.58578644,7 7,7 Z M12,5 C12.4142136,5 12.75,5.33578644 12.75,5.75 C12.75,6.16421356 12.4142136,6.5 12,6.5 C11.5857864,6.5 11.25,6.16421356 11.25,5.75 C11.25,5.33578644 11.5857864,5 12,5 Z" id="Combined-Shape" fill="#000000" fill-rule="nonzero"></path>
    </g>
</svg>

<svg xmlns="http://www.w3.org/2000/svg" width="24" height="24" viewBox="0 0 24 24"><path d="M12 2c6.136 0 11.111 4.975 11.111 11.111C23.111 18.778 22 21 12 21S.889 18.778.889 13.111C.889 6.975 5.864 2 12 2m0 1.5a9.61 9.61 0 0 0-9.611 9.611c0 5.42 1.17 6.389 9.611 6.389 8.44 0 9.611-.969 9.611-6.389A9.61 9.61 0 0 0 12 3.5M6.401 9.274l4.814 3.9a1.75 1.75 0 1 1-.943 1.165l-4.815-3.9A.75.75 0 0 1 6.4 9.274M4.75 11.5a.75.75 0 1 1 0 1.5.75.75 0 0 1 0-1.5m14.5 0a.75.75 0 1 1 0 1.5.75.75 0 0 1 0-1.5M17 7a.75.75 0 1 1 0 1.5.75.75 0 0 1 0-1.5M7 7a.75.75 0 1 1 0 1.5A.75.75 0 0 1 7 7m5-2a.75.75 0 1 1 0 1.5.75.75 0 0 1 0-1.5"/></svg>
